packages/kaspersky-hexa-ui-icons/src/iconsSVGs/16x12/FlagMk.svg

<svg width="16" height="12" viewBox="0 0 16 12" fill="none" xmlns="http://www.w3.org/2000/svg">
<g clip-path="url(#clip0_41818_3249)">
<rect width="16" height="12" rx="2" fill="white"/>
<mask id="mask0_41818_3249" style="mask-type:luminance" maskUnits="userSpaceOnUse" x="0" y="0" width="16" height="12">
<rect width="16" height="12" rx="2" fill="white"/>
</mask>
<g mask="url(#mask0_41818_3249)">
<rect width="16" height="12" fill="#E81B26"/>
<ellipse cx="7.98057" cy="5.97077" rx="1.90476" ry="1.94982" fill="#FFE94F"/>
<path d="M5.81555 7.5601C5.93046 7.72388 6.06237 7.8735 6.20911 8.00737L1.10168 13.8853L-0.427612 12.147L5.81555 7.5601ZM16.3888 12.147L14.8595 13.8853L9.75012 8.00835C9.89715 7.87443 10.0295 7.725 10.1447 7.56108L16.3888 12.147ZM9.12317 12.3931H6.83801L7.51379 8.65581C7.66554 8.68327 7.82115 8.70073 7.98059 8.70073C8.13969 8.70073 8.29497 8.68315 8.44641 8.65581L9.12317 12.3931ZM5.3429 5.58452C5.32538 5.71088 5.3136 5.83992 5.3136 5.97124C5.31361 6.10196 5.32553 6.23018 5.3429 6.356L-0.0194092 7.14116V4.80132L5.3429 5.58452ZM15.9806 7.14116L10.6173 6.356C10.6347 6.23014 10.6476 6.10201 10.6476 5.97124C10.6476 5.83987 10.6348 5.71093 10.6173 5.58452L15.9806 4.80132V7.14116ZM6.20911 3.93315C6.06237 4.06691 5.93049 4.21675 5.81555 4.38042L-0.427612 -0.204544L1.10168 -1.9438L6.20911 3.93315ZM16.3888 -0.204544L10.1447 4.38042C10.0295 4.21654 9.89715 4.06703 9.75012 3.93315L14.8595 -1.9438L16.3888 -0.204544ZM8.4845 3.29057C8.32129 3.25862 8.15289 3.24174 7.98059 3.24174C7.80762 3.24175 7.63853 3.25837 7.47473 3.29057L6.83801 -0.231888H9.12317L8.4845 3.29057Z" fill="#FFE94F"/>
</g>
</g>
<defs>
<clipPath id="clip0_41818_3249">
<rect width="16" height="12" fill="white"/>
</clipPath>
</defs>
</svg>

<svg xmlns="http://www.w3.org/2000/svg" width="16" height="12" fill="none" viewBox="0 0 16 12"><g clip-path="url(#a)"><rect width="16" height="12" fill="#fff" rx="2"/><mask id="b" width="16" height="12" x="0" y="0" maskUnits="userSpaceOnUse" style="mask-type:luminance"><rect width="16" height="12" fill="#fff" rx="2"/></mask><g mask="url(#b)"><path fill="#e81b26" d="M0 0h16v12H0z"/><circle cx="8" cy="6" r="2" fill="#ffe94f"/><path fill="#ffe94f" d="M5.8156 7.5601a2.72 2.72 0 0 0 .3935.4473l-5.1074 5.8779-1.5293-1.7383zm10.5732 4.5869-1.5293 1.7383-5.1094-5.877a2.72 2.72 0 0 0 .3946-.4472zm-7.2656.2461H6.838l.6758-3.7373c.1517.0275.3074.045.4668.045.159 0 .3144-.0176.4658-.045zM5.3429 5.5845a2.8 2.8 0 0 0-.0293.3867c0 .1308.012.259.0293.3848l-5.3623.7852V4.8013zm10.6377 1.5567-5.3633-.7852c.0174-.1259.0303-.254.0303-.3848 0-.1313-.0128-.2603-.0303-.3867l5.3633-.7832zm-9.7715-3.208a2.72 2.72 0 0 0-.3936.4472L-.4276-.2046l1.5293-1.7392zM16.3888-.2045l-6.2441 4.585a2.72 2.72 0 0 0-.3946-.4473l5.1094-5.877zm-7.9043 3.495a2.6 2.6 0 0 0-.504-.0488c-.1729 0-.342.0167-.5058.0489L6.838-.232h2.2852z"/></g></g><defs><clipPath id="a"><path fill="#fff" d="M0 0h16v12H0z"/></clipPath></defs></svg>
